X: 1
T: Constitution Hornpipe
Z: John Chambers <jc:trillian.mit.edu>
M: C
L: 1/8
K: D
(3ABc \
| "D"d2d2 dAfd | "A7"e2e2 eAge | "D"fedc "(Bm)"BAgf | "E7"edef "A7"eABc || "D"d2d2 dAfd |
| "A7"e2e2 eAge | "D"fedc "G"Bg"A7"ec | "D"d2f2 d2 :: A2 | "D"FAdA fdAF | "G"GBdB gdBG |
| "A7"Acec gece | "D"dfed "A7"cBAG || "D"FAdA fdAF | "G"GBdB gdBG | "A7"Acec gece | "D"d2f2 d2 :|
